svg/fluentui-system-icons/ic_fluent_port_hdmi_20_filled.svg

<svg width="20" height="20" viewBox="0 0 20 20" fill="none" xmlns="http://www.w3.org/2000/svg">
<path d="M4.85355 7.43934C5.13486 7.15804 5.51639 7 5.91421 7H14.0858C14.4836 7 14.8651 7.15804 15.1464 7.43934L17.5607 9.85355C17.842 10.1349 18 10.5164 18 10.9142V11.5C18 12.3284 17.3284 13 16.5 13H3.5C2.67157 13 2 12.3284 2 11.5V10.9142C2 10.5164 2.15804 10.1349 2.43934 9.85355L4.85355 7.43934ZM6.5 9.5C6.22386 9.5 6 9.72386 6 10C6 10.2761 6.22386 10.5 6.5 10.5H13.5C13.7761 10.5 14 10.2761 14 10C14 9.72386 13.7761 9.5 13.5 9.5H6.5Z" fill="#212121"/>
</svg>

<svg xmlns="http://www.w3.org/2000/svg" width="20" height="20"><path d="M4.854 7.44A1.5 1.5 0 0 1 5.914 7h8.172a1.5 1.5 0 0 1 1.06.44l2.415 2.414a1.5 1.5 0 0 1 .439 1.06v.586a1.5 1.5 0 0 1-1.5 1.5h-13A1.5 1.5 0 0 1 2 11.5v-.586c0-.398.158-.78.44-1.06l2.414-2.415ZM6.5 9.5a.5.5 0 0 0 0 1h7a.5.5 0 0 0 0-1h-7Z"/></svg>
